X: 1
T:Swallowtail Jig
M:6/8
L:1/8
Q:160
C:Traditional
S:MMC 69
R:Jig
N:Third in set with "A Fig For A Kiss" and "The Butterfly"
K:E Dor
|:"Em"GEE BEE|"Em"GEE BAG|"D"FDD ADD|"D"dcd AGF|\
"Em"GEE BEE|"Em"GEE B2c|"D"dcd AGF|"G"GEE "Em"{EF}EDE:|
|:"Em"Bcd e2f|"Em"{ef}e2f {ef}edc|"Em"Bcd e2f|"D"{ef}edc d3|\
"Em"Bcd e2f|"Em"{ef}e2f {ef}edc|"D"dcd AGF|"G"GEE "Em"{EF}EDE:|

